X: 3415
T: CULLODEN DAY
%R: march
B: James Kerr "Merry Melodies" v.3 p.46 #415
Z: 2016 John Chambers <jc:trillian.mit.edu>
M: C|
L: 1/8
%%slurgraces yes
%%graceslurs yes
K: A
(ed) |\
({cd}c2Bc) (ABcA) | a2e2 e2{f}=g2 | ({B=c}B2AB) =GABG | =g2d2 d2(ed) |\
({cd}c2Bc) (ABcA) | a2e2 e2{f}=g2 | dcBA =GABd | c2A2A2 :|
|: (ec) |\
A2a2 A2a2 | a2e2 e2f2 | {=ga}g2B2 gage | d=cBA =GABG |\
A2a2 A2a2 | A2a2 e2{f}=g2 | dcBA =GABd | c2A2A2 :|

%%sep 1 1 500
%%sep 1 1 500

